img/logo_white.svg

<svg width="240" height="36" viewBox="0 0 240 36" fill="none" xmlns="http://www.w3.org/2000/svg">
<path fill-rule="evenodd" clip-rule="evenodd" d="M18.8608 35.5547C28.8627 35.5547 36.9707 27.7197 36.9707 18.0547C36.9707 8.3897 28.8627 0.554688 18.8608 0.554688C8.85904 0.554688 0.750977 8.3897 0.750977 18.0547C0.750977 27.7197 8.85904 35.5547 18.8608 35.5547ZM18.8613 30.5549C26.0054 30.5549 31.7969 24.9585 31.7969 18.0549C31.7969 11.1513 26.0054 5.5549 18.8613 5.5549C11.7171 5.5549 5.92563 11.1513 5.92563 18.0549C5.92563 24.9585 11.7171 30.5549 18.8613 30.5549Z" fill="url(#paint0_linear)"/>
<path d="M61.988 28.0935L57.0336 20.256H51.7947V28.0935H47.319V7.44353H57.9909C60.0874 7.31979 62.1658 7.88355 63.8895 9.04353C64.5825 9.59232 65.1313 10.2918 65.491 11.0848C65.8507 11.8777 66.0112 12.7417 65.9592 13.606C65.9839 14.9621 65.5274 16.2855 64.6656 17.356C63.8041 18.4141 62.587 19.1481 61.2248 19.431L66.9941 28.106L61.988 28.0935ZM61.4576 13.781C61.4576 11.7935 60.164 10.806 57.5769 10.806H51.7947V16.8935H57.6416C58.6605 16.9625 59.671 16.674 60.4874 16.081C60.8153 15.791 61.0724 15.4342 61.2402 15.0365C61.408 14.6387 61.4823 14.2099 61.4576 13.781Z" fill="white"/>
<path d="M71.289 28.0643V7.42676H75.7647V28.0643H71.289Z" fill="white"/>
<path d="M98.8928 22.4484C98.94 23.3496 98.75 24.2477 98.3406 25.0587C97.9311 25.8697 97.3155 26.5672 96.5514 27.0859C94.5011 28.2907 92.1156 28.8539 89.7214 28.6984C87.4715 28.8177 85.2318 28.3285 83.2536 27.2859C82.4754 26.8147 81.8068 26.1926 81.2902 25.4589C80.7737 24.7252 80.4203 23.8959 80.2525 23.0234L84.6118 22.3109C84.714 22.7983 84.9182 23.2604 85.2118 23.6688C85.5054 24.0772 85.8823 24.4233 86.3193 24.6859C87.406 25.2353 88.6263 25.4902 89.8508 25.4234C92.9682 25.4234 94.5335 24.5109 94.5335 22.6734C94.5318 22.1469 94.3292 21.6394 93.9643 21.2484C93.5353 20.8255 93.0138 20.5009 92.4379 20.2984C91.2133 19.8992 89.9593 19.59 88.6866 19.3734C87.5593 19.1372 86.4454 18.8452 85.3492 18.4984C84.7577 18.2983 84.1897 18.0386 83.6546 17.7234C83.1581 17.4458 82.7194 17.0812 82.361 16.6484C81.99 16.2124 81.7089 15.7117 81.5332 15.1734C81.3201 14.5444 81.2195 13.885 81.2356 13.2234C81.2049 12.3858 81.3926 11.5542 81.7813 10.805C82.1701 10.0558 82.7476 9.41308 83.4606 8.93589C85.3635 7.82998 87.5701 7.31107 89.7861 7.44839C91.8584 7.33626 93.9235 7.7682 95.7623 8.69839C96.4567 9.14696 97.0458 9.73149 97.4915 10.4141C97.9371 11.0967 98.2294 11.8622 98.3495 12.6609L93.9643 13.1859C93.8111 12.3848 93.3487 11.67 92.6707 11.1859C91.7831 10.6839 90.7608 10.4489 89.7343 10.5109C87.0308 10.5109 85.6726 11.3359 85.6726 13.0109C85.6515 13.489 85.8074 13.9588 86.1124 14.3359C86.4653 14.7199 86.9091 15.0158 87.4059 15.1984C88.5266 15.5885 89.677 15.8936 90.8468 16.1109C92.3452 16.3734 93.8169 16.7624 95.2449 17.2734C96.017 17.5621 96.7273 17.9859 97.3405 18.5234C97.8588 19.001 98.2646 19.5808 98.5306 20.2234C98.816 20.9496 98.9565 21.7216 98.9445 22.4984L98.8928 22.4484Z" fill="white"/>
<path d="M103.421 28.0643V7.42676H107.897V28.0643H103.421Z" fill="white"/>
<path d="M126.302 28.0768L116.976 12.1768C117.139 13.421 117.234 14.6728 117.26 15.9268V28.1018H113.276V7.42676H118.45L127.881 23.4518C127.707 22.1373 127.612 20.8143 127.596 19.4893V7.42676H131.477V28.0768H126.302Z" fill="white"/>
<path d="M145.85 25.3006C146.994 25.3034 148.133 25.139 149.226 24.8131C150.172 24.5823 151.055 24.1558 151.813 23.5631V20.6881H146.639V17.5006H155.953V25.1006C154.703 26.2907 153.19 27.1924 151.529 27.7381C149.696 28.3807 147.761 28.7065 145.811 28.7006C144.347 28.791 142.879 28.589 141.5 28.1073C140.12 27.6255 138.857 26.8744 137.791 25.9006C136.809 24.8243 136.057 23.5713 135.578 22.2135C135.098 20.8557 134.901 19.4198 134.997 17.9881C134.897 16.5693 135.095 15.1456 135.579 13.8028C136.064 12.4601 136.825 11.2262 137.817 10.1756C138.91 9.21824 140.192 8.48354 141.585 8.01535C142.979 7.54717 144.456 7.35509 145.928 7.4506C150.934 7.4506 154.129 9.2506 155.487 12.8256L151.374 14.0756C150.967 13.081 150.23 12.2453 149.278 11.7006C148.256 11.1485 147.098 10.8722 145.928 10.9006C145.037 10.8426 144.143 10.9774 143.313 11.2953C142.483 11.6132 141.737 12.1061 141.129 12.7381C139.949 14.2561 139.371 16.1316 139.499 18.0256C139.368 19.9703 139.965 21.8957 141.18 23.4506C141.775 24.0931 142.511 24.5976 143.336 24.9266C144.16 25.2556 145.05 25.4005 145.941 25.3506L145.85 25.3006Z" fill="white"/>
<path d="M177.27 22.3859C177.319 23.286 177.131 24.1833 176.723 24.9942C176.316 25.8052 175.703 26.5032 174.942 27.0234C172.891 28.2282 170.506 28.7914 168.112 28.6359C165.862 28.7518 163.623 28.2629 161.644 27.2234C160.869 26.7482 160.203 26.125 159.687 25.3919C159.171 24.6589 158.816 23.8316 158.643 22.9609L162.963 22.2734C163.073 22.7598 163.281 23.2203 163.576 23.628C163.872 24.0358 164.248 24.3827 164.684 24.6484C165.77 25.1996 166.99 25.4546 168.215 25.3859C171.333 25.3859 172.898 24.4734 172.898 22.6359C172.915 22.1033 172.72 21.5845 172.354 21.1859C171.928 20.7658 171.411 20.4415 170.841 20.2359C169.616 19.8367 168.362 19.5275 167.09 19.3109C165.985 19.0965 164.892 18.8253 163.817 18.4984C163.225 18.2983 162.657 18.0386 162.122 17.7234C161.627 17.4446 161.188 17.0802 160.829 16.6484C160.463 16.2093 160.182 15.7095 160.001 15.1734C159.794 14.543 159.694 13.8846 159.703 13.2234C159.661 12.3882 159.84 11.5563 160.222 10.8062C160.605 10.0561 161.178 9.41243 161.89 8.93589C163.792 7.82998 165.999 7.31107 168.215 7.44839C170.283 7.33477 172.345 7.76686 174.178 8.69839C174.874 9.1458 175.464 9.73001 175.91 10.4128C176.355 11.0956 176.647 11.8617 176.766 12.6609L172.432 13.2359C172.253 12.429 171.769 11.7158 171.074 11.2359C170.186 10.7339 169.164 10.4989 168.137 10.5609C165.434 10.5609 164.076 11.3859 164.076 13.0609C164.056 13.5368 164.207 14.0047 164.503 14.3859C164.858 14.767 165.301 15.0624 165.796 15.2484C166.918 15.635 168.068 15.94 169.237 16.1609C170.739 16.4238 172.215 16.8128 173.648 17.3234C174.42 17.6121 175.13 18.0359 175.744 18.5734C176.258 19.0544 176.663 19.6333 176.934 20.2734C177.208 21.0021 177.344 21.7729 177.335 22.5484L177.27 22.3859Z" fill="white"/>
<path d="M190.207 10.7643V28.0643H185.731V10.7643H178.837V7.42676H197.115V10.7643H190.207Z" fill="white"/>
<path d="M212.313 28.0768L210.386 22.7893H202.249L200.348 28.0768H195.872L203.633 7.42676H208.898L216.659 28.0768H212.313ZM206.35 10.5768L206.259 10.8893C206.156 11.2518 206.026 11.6518 205.897 12.1393C205.768 12.6268 204.875 15.0518 203.31 19.5518H209.441L207.346 13.6143L206.686 11.6268L206.376 10.6143L206.35 10.5768Z" fill="white"/>
<path d="M234.317 28.0938L229.362 20.2563H224.188V28.0938H219.712V7.4438H230.371C232.464 7.31895 234.539 7.88295 236.257 9.0438C236.954 9.58997 237.507 10.2886 237.869 11.082C238.231 11.8754 238.392 12.7407 238.34 13.6063C238.37 14.9632 237.913 16.2882 237.046 17.3563C236.189 18.4192 234.97 19.1544 233.605 19.4313L239.388 28.1063L234.317 28.0938ZM233.786 13.7813C233.786 11.7938 232.493 10.8063 229.841 10.8063H224.124V16.8938H229.97C230.985 16.9632 231.992 16.6745 232.803 16.0813C233.134 15.7925 233.393 15.4362 233.563 15.0384C233.733 14.6406 233.809 14.2111 233.786 13.7813Z" fill="white"/>
<defs>
<linearGradient id="paint0_linear" x1="6.57201" y1="32.4297" x2="39.142" y2="1.3173" gradientUnits="userSpaceOnUse">
<stop stop-color="#62348A"/>
<stop offset="0.109375" stop-color="#A1217D"/>
<stop offset="0.235224" stop-color="#EB3E2D"/>
<stop offset="0.460463" stop-color="#FFE400"/>
<stop offset="0.662141" stop-color="#3DB138"/>
<stop offset="0.894544" stop-color="#009FCA"/>
<stop offset="1" stop-color="#185AA3"/>
</linearGradient>
</defs>
</svg>

<svg width="240" height="36" fill="none" xmlns="http://www.w3.org/2000/svg"><path fill-rule="evenodd" clip-rule="evenodd" d="M18.86 35.555c10.003 0 18.11-7.835 18.11-17.5S28.864.555 18.86.555C8.86.555.752 8.39.752 18.055s8.108 17.5 18.11 17.5zm.001-5c7.144 0 12.936-5.596 12.936-12.5s-5.792-12.5-12.936-12.5-12.935 5.596-12.935 12.5 5.791 12.5 12.935 12.5z" fill="url(#paint0_linear)"/><path d="M61.988 28.093l-4.954-7.837h-5.24v7.837H47.32V7.444h10.672a9.566 9.566 0 015.898 1.6 5.51 5.51 0 011.602 2.042c.36.793.52 1.657.468 2.521a5.808 5.808 0 01-1.293 3.75 6.007 6.007 0 01-3.441 2.075l5.77 8.675-5.007-.013zm-.53-14.312c0-1.988-1.294-2.975-3.881-2.975h-5.782v6.088h5.847a4.348 4.348 0 002.845-.813c.328-.29.585-.647.753-1.044.168-.398.242-.827.218-1.256zm9.831 14.283V7.427h4.476v20.637h-4.476zm27.604-5.616c.047.902-.143 1.8-.552 2.61a5.392 5.392 0 01-1.79 2.028 11.965 11.965 0 01-6.83 1.612c-2.25.12-4.49-.37-6.467-1.412a6.543 6.543 0 01-1.964-1.827 6.297 6.297 0 01-1.038-2.436l4.36-.712c.102.487.306.95.6 1.358.293.408.67.754 1.107 1.017a6.99 6.99 0 003.532.737c3.117 0 4.683-.912 4.683-2.75a2.098 2.098 0 00-.57-1.425 4.12 4.12 0 00-1.526-.95 26.39 26.39 0 00-3.751-.925 34.564 34.564 0 01-3.338-.875 9.04 9.04 0 01-1.694-.775 4.58 4.58 0 01-1.294-1.075 4.369 4.369 0 01-.828-1.475 5.646 5.646 0 01-.297-1.95 4.86 4.86 0 01.545-2.418 5.055 5.055 0 011.68-1.87 11.22 11.22 0 016.325-1.487c2.072-.112 4.138.32 5.976 1.25a5.86 5.86 0 011.73 1.716 5.67 5.67 0 01.858 2.247l-4.386.525a3.2 3.2 0 00-1.293-2 5.32 5.32 0 00-2.937-.675c-2.703 0-4.061.825-4.061 2.5-.022.478.134.948.44 1.325.352.384.796.68 1.293.862 1.12.39 2.271.696 3.44.913a26.76 26.76 0 014.399 1.162 6.781 6.781 0 012.096 1.25 4.82 4.82 0 011.19 1.7c.285.727.425 1.499.413 2.275l-.051-.05zm4.528 5.616V7.427h4.476v20.637h-4.476zm22.881.013l-9.326-15.9a34.35 34.35 0 01.284 3.75v12.175h-3.984V7.427h5.174l9.431 16.025a33.254 33.254 0 01-.285-3.963V7.427h3.881v20.65h-5.175zM145.85 25.3a11.723 11.723 0 003.376-.487 6.827 6.827 0 002.587-1.25v-2.875h-5.174v-3.187h9.314v7.6a11.718 11.718 0 01-4.424 2.637 17.132 17.132 0 01-5.718.963 11.023 11.023 0 01-4.311-.594 10.752 10.752 0 01-3.709-2.206 10.807 10.807 0 01-2.213-3.688 10.551 10.551 0 01-.581-4.225c-.1-1.419.098-2.842.582-4.185a10.463 10.463 0 012.238-3.627 11.07 11.07 0 013.768-2.16 11.342 11.342 0 014.343-.565c5.006 0 8.201 1.8 9.559 5.375l-4.113 1.25a4.868 4.868 0 00-2.096-2.375 6.714 6.714 0 00-3.35-.8 6.194 6.194 0 00-2.615.394 6.014 6.014 0 00-2.184 1.443 7.755 7.755 0 00-1.63 5.288 7.937 7.937 0 001.681 5.425 5.929 5.929 0 002.156 1.476 6.107 6.107 0 002.605.424l-.091-.05zm31.42-2.914c.049.9-.139 1.797-.547 2.608a5.393 5.393 0 01-1.781 2.03 11.966 11.966 0 01-6.83 1.612 12.535 12.535 0 01-6.468-1.413 6.624 6.624 0 01-1.957-1.831 6.384 6.384 0 01-1.044-2.431l4.32-.688c.11.487.318.947.613 1.355a3.83 3.83 0 001.108 1.02 6.947 6.947 0 003.531.738c3.118 0 4.683-.913 4.683-2.75a2.047 2.047 0 00-.544-1.45 4.168 4.168 0 00-1.513-.95 26.423 26.423 0 00-3.751-.925 32.586 32.586 0 01-3.273-.813 9.05 9.05 0 01-1.695-.775 4.645 4.645 0 01-2.121-2.55 5.986 5.986 0 01-.298-1.95 4.793 4.793 0 01.519-2.417 4.976 4.976 0 011.668-1.87 11.217 11.217 0 016.325-1.488c2.068-.113 4.13.319 5.963 1.25a5.833 5.833 0 011.732 1.715 5.64 5.64 0 01.856 2.248l-4.334.575a3.305 3.305 0 00-1.358-2 5.321 5.321 0 00-2.937-.675c-2.703 0-4.061.825-4.061 2.5-.02.476.131.944.427 1.325a3.4 3.4 0 001.293.862c1.122.387 2.272.692 3.441.913 1.502.263 2.978.652 4.411 1.162a6.794 6.794 0 012.096 1.25 5 5 0 011.19 1.7c.274.73.41 1.5.401 2.275l-.065-.162zm12.937-11.622v17.3h-4.476v-17.3h-6.894V7.427h18.278v3.337h-6.908zm22.106 17.313l-1.927-5.288h-8.137l-1.901 5.288h-4.476l7.761-20.65h5.265l7.761 20.65h-4.346zm-5.963-17.5l-.091.312c-.103.363-.233.763-.362 1.25-.129.488-1.022 2.913-2.587 7.413h6.131l-2.095-5.938-.66-1.987-.31-1.013-.026-.037zm27.967 17.517l-4.955-7.838h-5.174v7.838h-4.476V7.444h10.659a9.513 9.513 0 015.886 1.6 5.487 5.487 0 011.612 2.038 5.31 5.31 0 01.471 2.524 5.744 5.744 0 01-1.294 3.75 5.929 5.929 0 01-3.441 2.075l5.783 8.675-5.071-.012zm-.531-14.313c0-1.987-1.293-2.975-3.945-2.975h-5.717v6.088h5.846a4.307 4.307 0 002.833-.813c.331-.288.59-.645.76-1.043.17-.397.246-.827.223-1.257z" fill="#fff"/><defs><linearGradient id="paint0_linear" x1="6.572" y1="32.43" x2="39.142" y2="1.317" gradientUnits="userSpaceOnUse"><stop stop-color="#62348A"/><stop offset=".109" stop-color="#A1217D"/><stop offset=".235" stop-color="#EB3E2D"/><stop offset=".46" stop-color="#FFE400"/><stop offset=".662" stop-color="#3DB138"/><stop offset=".895" stop-color="#009FCA"/><stop offset="1" stop-color="#185AA3"/></linearGradient></defs></svg>
